X:1
T:Over the Ocean Wave
T:Over the Ocean Wave
T:William Batchelder Bradbury
T:Julia Sampson Haskell, 1858
T:Public Domain Courtesy of the Cyber Hymnal™
C:William Batchelder Bradbury
Z:Public Domain
Z:Courtesy of the Cyber Hymnal™
%%score ( 1 2 ) ( 3 4 )
L:1/8
Q:1/4=115
M:3/4
K:A
V:1 treble 
V:2 treble 
V:3 bass 
V:4 bass 
V:1
 [Ec]3 [DB] [CA]2 | [FA]3 [EG] [DF]2 | [CE]2 [EA]2 [Ec]2 | [EB]4 z2 | [Ec]3 [DB] [CA]2 | %5
w: 1.~O- ver the|o- cean wave,|far, far a-|way,|There the poor|
w: 2.~Here in this|hap- py land|we have the|light|Shin- ing from|
w: 3.~Then, while the|mis- sion ships|glad tid- ings|bring,|List! as that|
 [FA]3 [EG] [DF]2 | [CE]2 [EA]2 [DB]2 | [CA]4 z2 | [GB]2 [Ac]2 [GB]2 | [GB]3 [EG] E2 | %10
w: hea- then live,|wait- ing for|day;|Grop- ing in|ig- no- rance,|
w: God’s own Word,|free, pure and|bright;|Shall we not|send to them|
w: hea- then band|joy- ful- ly|sing,|“O- ver the|o- cean wave,|
 E2 [EA]2 [Ec]2 | [EB]4 z2 | [GB]2 [Ac]2 [GB]2 | [GB]3 [EG] E2 | E2 [EA]2 [Ec]2 | [EB]6 || %16
w: dark as the|night,|No bless- ed|Bi- ble to|give them the|light.|
w: Bi- bles to|read,|Teach- ers, and|preach- ers, and|all that they|need?|
w: oh, see them|come,|Bring- ing the|Bread of Life,|guid- ing us|home.”|
"^Refrain" [Ec]3 [DB] [CA]2 | [FA]3 [EG] [DF]2 | [CE]2 [EA]2 [Ec]2 | [EB]4 z2 | [Ec]3 [DB] [CA]2 | %21
w: |||||
w: Pi- ty them,|pi- ty them,|Chris- tians at|home,|Haste with the|
w: |||||
 [FA]3 [EG] [DF]2 | [CE]2 [EA]2 [DB]2 | [CA]6 |] %24
w: |||
w: Bread of Life,|hast- en and|come.|
w: |||
V:2
 x6 | x6 | x6 | x6 | x6 | x6 | x6 | x6 | x6 | x4 E2 | E2 x4 | x6 | x6 | x4 E2 | E2 x4 | x6 || x6 | %17
 x6 | x6 | x6 | x6 | x6 | x6 | x6 |] %24
V:3
 [A,,A,]3 [A,,A,] [A,,A,]2 | [D,A,]3 [D,A,] [D,A,]2 | [A,,A,]2 [C,A,]2 [A,,A,]2 | [E,G,]4 z2 | %4
 [A,,A,]3 [A,,A,] [A,,A,]2 | [D,A,]3 [D,A,] [D,A,]2 | [A,,A,]2 [C,A,]2 E,2 | [A,,E,]4 z2 | %8
 E,2 E,2 E,2 | E,3 E, E,2 | [E,G,]2 [C,A,]2 [A,,A,]2 | [E,G,]4 z2 | E,2 E,2 E,2 | E,3 E, E,2 | %14
 [E,G,]2 [C,A,]2 [A,,A,]2 | [E,G,]6 || [A,,A,]3 [A,,A,] [A,,A,]2 | [D,A,]3 [D,A,] [D,A,]2 | %18
 [A,,A,]2 [C,A,]2 [A,,A,]2 | [E,G,]4 z2 | [A,,A,]3 [A,,A,] [A,,A,]2 | [D,A,]3 [D,A,] [D,A,]2 | %22
 [A,,A,]2 [C,A,]2 E,2 | [A,,E,]6 |] %24
V:4
 x6 | x6 | x6 | x6 | x6 | x6 | x4 E,2 | x6 | x6 | x6 | x6 | x6 | x6 | x6 | x6 | x6 || x6 | x6 | %18
 x6 | x6 | x6 | x6 | x4 E,2 | x6 |] %24

